rospo-dark/16x16/actions/path-clip-edit.svg

<svg height="16" viewBox="0 0 16 16" width="16" xmlns="http://www.w3.org/2000/svg"><path d="m14.501953.94726562c-.8272 0-1.498047.67156998-1.498047 1.49999998s.670817 1.5 1.498047 1.5c.8272 0 1.498047-.67157 1.498047-1.5s-.670817-1.49999998-1.498047-1.49999998zm-6.8105468 4.43945318c-.2735.1978999-.5374687.4064531-.7929687.6269531 1.4703 1.411 2.9599313 2.2894812 4.3945315 2.5507812 1.512.2753 2.959547-.1605718 4.060547-1.2636719l-.705078-.7070312c-.895.8969-1.941782 1.2110281-3.175782.9863281-1.141-.2077-2.4465498-.9412593-3.7812498-2.1933593zm-1.3261718 1.1074218c-.23552.23065-.456175.4758457-.671875.7285156 1.3998 1.4258 2.2839062 2.9248188 2.5039062 4.1367188.22439 1.236-.088882 2.284841-.984375 3.181641l.7050782.707031c1.1014999-1.103 1.5365187-2.554359 1.2617187-4.068359-.2704-1.4891005-1.3089531-3.1571474-2.8144531-4.6855474zm-3.8457032 6.4531254c-.8271999 0-1.4980468.67157-1.4980468 1.5s.6708169 1.5 1.4980468 1.5c.8272 0 1.4980469-.67157 1.4980469-1.5s-.6708169-1.5-1.4980469-1.5z" fill="#d3dae3"/><path d="m13.070312 2.0292969c-5.3270995 1.1006-10.0373745 4.6577812-10.9843745 10.9882811.13845-.0423.2813238-.072266.4335937-.072266.2018 0 .3946226.040822.5703126.113282.42877-2.7319 1.5878437-4.8809003 3.2148437-6.5000002.021069-.02112.0392789-.0455163.0605469-.0664063 0 0 .0019531.0019531.0019531.0019531 1.8124-1.7741 4.1857655-2.900325 6.7597655-3.453125-.078-.1823-.123047-.38255-.123047-.59375 0-.14598.027567-.2845487.066406-.4179687z" fill="#d3dae3" opacity=".3"/></svg>

<?xml version="1.0" encoding="UTF-8" standalone="no"?>
<svg xmlns="http://www.w3.org/2000/svg" width="22" height="22" viewBox="0 0 22 22">
 <defs>
  <style type="text/css" id="current-color-scheme">
   .ColorScheme-Text { color:#d3dae3; } .ColorScheme-Highlight { color:#5294e2; }
  </style>
 </defs>
 <path style="fill:currentColor;opacity:1" class="ColorScheme-Text" transform="translate(3 3)" d="M 14.501953 0.94726562 C 13.674753 0.94726562 13.003906 1.6188356 13.003906 2.4472656 C 13.003906 3.2756956 13.674723 3.9472656 14.501953 3.9472656 C 15.329153 3.9472656 16 3.2756956 16 2.4472656 C 16 1.6188356 15.329183 0.94726562 14.501953 0.94726562 z M 7.6914062 5.3867188 C 7.4179062 5.5846187 7.1539375 5.7931719 6.8984375 6.0136719 C 8.3687375 7.4246719 9.8583688 8.3031531 11.292969 8.5644531 C 12.804969 8.8397531 14.252516 8.4038813 15.353516 7.3007812 L 14.648438 6.59375 C 13.753438 7.49065 12.706656 7.8047781 11.472656 7.5800781 C 10.331656 7.3723781 9.0261062 6.6388188 7.6914062 5.3867188 z M 6.3652344 6.4941406 C 6.1297144 6.7247906 5.9090594 6.9699863 5.6933594 7.2226562 C 7.0931594 8.6484562 7.9772656 10.147475 8.1972656 11.359375 C 8.4216556 12.595375 8.1083836 13.644216 7.2128906 14.541016 L 7.9179688 15.248047 C 9.0194687 14.145047 9.4544875 12.693688 9.1796875 11.179688 C 8.9092875 9.6905875 7.8707344 8.0225406 6.3652344 6.4941406 z M 2.5195312 12.947266 C 1.6923313 12.947266 1.0214844 13.618836 1.0214844 14.447266 C 1.0214844 15.275696 1.6923013 15.947266 2.5195312 15.947266 C 3.3467312 15.947266 4.0175781 15.275696 4.0175781 14.447266 C 4.0175781 13.618836 3.3467612 12.947266 2.5195312 12.947266 z"/>
 <path style="fill:currentColor;opacity:0.3" class="ColorScheme-Text" transform="translate(3 3)" d="M 13.070312 2.0292969 C 7.7432125 3.1298969 3.0329375 6.6870781 2.0859375 13.017578 C 2.2243875 12.975278 2.3672613 12.945312 2.5195312 12.945312 C 2.7213312 12.945312 2.9141538 12.986134 3.0898438 13.058594 C 3.5186138 10.326694 4.6776875 8.1776937 6.3046875 6.5585938 C 6.3257565 6.5374738 6.3439664 6.5130775 6.3652344 6.4921875 C 6.3652344 6.4921875 6.3671875 6.4941406 6.3671875 6.4941406 C 8.1795875 4.7200406 10.552953 3.5938156 13.126953 3.0410156 C 13.048953 2.8587156 13.003906 2.6584656 13.003906 2.4472656 C 13.003906 2.3012856 13.031473 2.1627169 13.070312 2.0292969 z"/>
</svg>
